X:0187
T:Come hap me with thy Petticoat
T:Leith Wynd
N:from early in the century, in many other sources
M:C
L:1/8
Q:1/4=76
I: :: ::
Z:Jack Campin * www.campin.me.uk * 2009
K:E Minor
g|(dB)(AG) (ED)(EG)|d2 dB d2dg|dBAG     EDEG|e2ed e3:|
g| dega {ga}b2  ag |d2 dB d2de|dega {ga}b2ag|e2ed e2e
g| dega {ga}b2  ag |d>edB d2dg|dBAG     EDEG|e2ed e3:|
<end>
<start>
